X: 39239
T: Tadin-Tinaketa
R: three-two
M: 3/2
K: Eminor
E2GB A3G ABAG|A2GF A2G2 EFED|E2GB A3G A4-|A2GF A2G2 E4:|
|:B2cB A3c BAc2|B2AG A3B GAG2|B2B2 A3B GFGB|A2GF A2G2 E4:|

